src/assets/outline/BitcoinConvert.svg

<svg width="24" height="24" viewBox="0 0 24 24"  xmlns="http://www.w3.org/2000/svg">
<path d="M16.0002 23.7197C15.7302 23.7197 15.4802 23.5698 15.3502 23.3398C15.2202 23.1098 15.2202 22.8198 15.3602 22.5898L16.4102 20.8398C16.6202 20.4798 17.0802 20.3698 17.4402 20.5798C17.8002 20.7898 17.9102 21.2497 17.7002 21.6097L17.4302 22.0598C20.1902 21.4098 22.2602 18.9297 22.2602 15.9697C22.2602 15.5597 22.6002 15.2197 23.0102 15.2197C23.4202 15.2197 23.7602 15.5597 23.7602 15.9697C23.7502 20.2397 20.2702 23.7197 16.0002 23.7197Z" />
<path d="M1 8.71973C0.59 8.71973 0.25 8.37973 0.25 7.96973C0.25 3.69973 3.73 0.219727 8 0.219727C8.27 0.219727 8.52 0.369731 8.65 0.599731C8.78 0.829731 8.78 1.11973 8.64 1.34973L7.59 3.09973C7.38 3.45973 6.92 3.56974 6.56 3.35974C6.2 3.14974 6.09 2.68977 6.3 2.32977L6.57 1.87976C3.81 2.52976 1.74 5.00973 1.74 7.96973C1.75 8.37973 1.41 8.71973 1 8.71973Z" />
<path d="M9.43012 16.0801H6.62012C6.21012 16.0801 5.87012 15.7401 5.87012 15.3301V13.0801C5.87012 12.6701 6.21012 12.3301 6.62012 12.3301H9.43012C10.4301 12.3301 11.3101 13.2101 11.3101 14.2101C11.3101 15.2301 10.4601 16.0801 9.43012 16.0801ZM7.37012 14.5801H9.43012C9.64012 14.5801 9.81012 14.4101 9.81012 14.2001C9.81012 14.0501 9.64012 13.8201 9.43012 13.8201H7.37012V14.5801Z" />
<path d="M9.82986 18.3301H6.60986C6.19986 18.3301 5.85986 17.9901 5.85986 17.5801V15.3301C5.85986 14.9201 6.19986 14.5801 6.60986 14.5801H9.82986C10.9499 14.5801 11.8699 15.4201 11.8699 16.4601C11.8699 17.5001 10.9599 18.3301 9.82986 18.3301ZM7.36986 16.8301H9.83986C10.1599 16.8301 10.3799 16.6301 10.3799 16.4501C10.3799 16.2701 10.1599 16.0701 9.83986 16.0701H7.36986V16.8301Z" />
<path d="M8.41992 19.4503C8.00992 19.4503 7.66992 19.1103 7.66992 18.7003V17.5703C7.66992 17.1603 8.00992 16.8203 8.41992 16.8203C8.82992 16.8203 9.16992 17.1603 9.16992 17.5703V18.7003C9.16992 19.1203 8.82992 19.4503 8.41992 19.4503Z" />
<path d="M8.41992 13.8195C8.00992 13.8195 7.66992 13.4795 7.66992 13.0695V11.9395C7.66992 11.5295 8.00992 11.1895 8.41992 11.1895C8.82992 11.1895 9.16992 11.5295 9.16992 11.9395V13.0695C9.16992 13.4895 8.82992 13.8195 8.41992 13.8195Z" />
<path d="M8.67 22.2502C4.85 22.2502 1.75 19.1402 1.75 15.3302C1.75 11.5202 4.86 8.41016 8.67 8.41016C8.85 8.41016 9.01 8.42018 9.19 8.43018C12.58 8.69018 15.32 11.4302 15.57 14.8002C15.58 15.0202 15.59 15.1702 15.59 15.3302C15.6 19.1402 12.49 22.2502 8.67 22.2502ZM8.67 9.90021C5.68 9.90021 3.25 12.3302 3.25 15.3202C3.25 18.3102 5.68 20.7402 8.67 20.7402C11.66 20.7402 14.1 18.3102 14.1 15.3202C14.1 15.1902 14.09 15.0602 14.08 14.9302C13.88 12.2502 11.73 10.1102 9.09 9.91016C8.96 9.91016 8.82 9.90021 8.67 9.90021Z" />
<path d="M15.3302 15.5997H14.8402C14.4502 15.5997 14.1202 15.2997 14.0902 14.9097C13.8902 12.2597 11.7502 10.1197 9.10015 9.91974C8.71015 9.88974 8.41016 9.55974 8.41016 9.16974V8.67975C8.41016 4.85975 11.5202 1.75977 15.3402 1.75977C19.1602 1.75977 22.2602 4.86975 22.2602 8.67975C22.2602 12.4897 19.1402 15.5997 15.3302 15.5997ZM9.90016 8.50977C12.7202 9.01977 14.9802 11.2697 15.4902 14.0997C18.4102 14.0097 20.7502 11.6097 20.7502 8.67975C20.7502 5.68975 18.3202 3.25977 15.3302 3.25977C12.3902 3.24977 9.99016 5.58977 9.90016 8.50977Z" />
</svg>

<?xml version="1.0" encoding="UTF-8"?>
<svg width="24" height="24" viewBox="0 0 24 24" xmlns="http://www.w3.org/2000/svg">
 <path d="m16 23.72c-0.27 0-0.52-0.1499-0.65-0.3799s-0.13-0.52 0.01-0.75l1.05-1.75c0.21-0.36 0.67-0.47 1.03-0.26s0.47 0.6699 0.26 1.0299l-0.27 0.4501c2.76-0.65 4.83-3.1301 4.83-6.0901 0-0.41 0.34-0.75 0.75-0.75s0.75 0.34 0.75 0.75c-0.01 4.27-3.49 7.75-7.76 7.75z"/>
 <path d="m1 8.7197c-0.41 0-0.75-0.34-0.75-0.75 0-4.27 3.48-7.75 7.75-7.75 0.27 0 0.52 0.15 0.65 0.38s0.13 0.52-0.01 0.75l-1.05 1.75c-0.21 0.36-0.67 0.47001-1.03 0.26001s-0.47-0.66997-0.26-1.03l0.27-0.45001c-2.76 0.65-4.83 3.13-4.83 6.09 0.01 0.41-0.33 0.75-0.74 0.75z"/>
 <path d="m9.4301 16.08h-2.81c-0.41 0-0.75-0.34-0.75-0.75v-2.25c0-0.41 0.34-0.75 0.75-0.75h2.81c0.99998 0 1.88 0.88 1.88 1.88 0 1.02-0.85 1.87-1.88 1.87zm-2.06-1.5h2.06c0.21 0 0.38-0.17 0.38-0.38 0-0.15-0.17-0.38-0.38-0.38h-2.06v0.76z"/>
 <path d="m9.8299 18.33h-3.22c-0.41 0-0.75-0.34-0.75-0.75v-2.25c0-0.41 0.34-0.75 0.75-0.75h3.22c1.12 0 2.04 0.84 2.04 1.88s-0.91 1.87-2.04 1.87zm-2.46-1.5h2.47c0.32004 0 0.54004-0.2 0.54004-0.38s-0.22-0.38-0.54004-0.38h-2.47v0.76z"/>
 <path d="m8.4199 19.45c-0.41 0-0.75-0.34-0.75-0.75v-1.13c0-0.41 0.34-0.75 0.75-0.75s0.75 0.34 0.75 0.75v1.13c0 0.42-0.34 0.75-0.75 0.75z"/>
 <path d="m8.4199 13.82c-0.41 0-0.75-0.34-0.75-0.75v-1.13c0-0.41 0.34-0.75 0.75-0.75s0.75 0.34 0.75 0.75v1.13c0 0.42-0.34 0.75-0.75 0.75z"/>
 <path d="m8.67 22.25c-3.82 0-6.92-3.11-6.92-6.92s3.11-6.92 6.92-6.92c0.18 0 0.34 0.01002 0.52 0.02002 3.39 0.26 6.13 3 6.38 6.37 0.01 0.22 0.02 0.37 0.02 0.53 0.01 3.81-3.1 6.92-6.92 6.92zm0-12.35c-2.99 0-5.42 2.43-5.42 5.42s2.43 5.42 5.42 5.42 5.43-2.43 5.43-5.42c0-0.13-0.01-0.26-0.02-0.39-0.2-2.68-2.35-4.82-4.99-5.02-0.13 0-0.27-0.00995-0.42-0.00995z"/>
 <path d="m15.33 15.6h-0.49c-0.39 0-0.72-0.3-0.75-0.69-0.2-2.65-2.34-4.79-4.99-4.99-0.39-0.03-0.68999-0.36-0.68999-0.75v-0.48999c0-3.82 3.11-6.92 6.93-6.92s6.92 3.11 6.92 6.92c0 3.81-3.12 6.92-6.93 6.92zm-5.43-7.0899c2.82 0.51 5.08 2.7599 5.59 5.5899 2.92-0.09 5.26-2.49 5.26-5.42 0-2.99-2.43-5.42-5.42-5.42-2.94-0.01-5.34 2.33-5.43 5.25z"/>
</svg>
